X:15357
T:Ships Are Sailing
S:John B. Walsh
M:C|
E:6.6
Z:Boston 
R:reel
K:G
Beed B^cdB|AD (3FED AD (3FED|~E3 F GFGA|Beef gfed|
Beed B^cdB|AD (3FED AD (3FED|~E3 F GFGA|Beed e2||
ef|gfga bgeg|fefg afdf|~g3a bgeg|~f3g e2 ef|
gfga bgeg|fefg afdf|~g2 bg ~f2 af|edef g2||
